icons/image-17.svg

<svg width="16" height="17" viewBox="0 0 16 17" fill="none" xmlns="http://www.w3.org/2000/svg">
<path fill-rule="evenodd" clip-rule="evenodd" d="M3.3125 4.04138C3.20895 4.04138 3.125 4.12533 3.125 4.22888V12.1039C3.125 12.2075 3.20895 12.2914 3.3125 12.2914H4.01815C4.0251 12.2837 4.0323 12.276 4.03975 12.2686L8.59778 7.71053C9.09232 7.21599 9.88783 7.19611 10.4065 7.66534L12.875 9.89881V4.22888C12.875 4.12533 12.7911 4.04138 12.6875 4.04138H3.3125ZM12.6875 12.2914H5.60792L9.39327 8.50603C9.46392 8.43538 9.57755 8.43254 9.65165 8.49958L12.875 11.4159V12.1039C12.875 12.2075 12.7911 12.2914 12.6875 12.2914ZM14 12.1039V11.1686V11.1643V4.22888C14 3.50401 13.4124 2.91638 12.6875 2.91638H3.3125C2.58763 2.91638 2 3.50401 2 4.22888V12.1039C2 12.8288 2.58763 13.4164 3.3125 13.4164H12.6875C13.4124 13.4164 14 12.8288 14 12.1039ZM6.125 6.66638C6.125 6.87349 5.9571 7.04138 5.75 7.04138C5.5429 7.04138 5.375 6.87349 5.375 6.66638C5.375 6.45928 5.5429 6.29138 5.75 6.29138C5.9571 6.29138 6.125 6.45928 6.125 6.66638ZM7.25 6.66638C7.25 7.49481 6.57843 8.16638 5.75 8.16638C4.92157 8.16638 4.25 7.49481 4.25 6.66638C4.25 5.83795 4.92157 5.16638 5.75 5.16638C6.57843 5.16638 7.25 5.83795 7.25 6.66638Z" fill="#272431"/>
</svg>

<svg xmlns="http://www.w3.org/2000/svg" width="16" height="17" viewBox="0 0 16 17"><path fill-rule="evenodd" d="M3.313 4.041a.188.188 0 00-.188.188v7.875c0 .104.084.187.188.187h.705a.578.578 0 01.022-.022L8.598 7.71a1.313 1.313 0 011.808-.046L12.875 9.9V4.23a.187.187 0 00-.188-.188H3.313zm9.374 8.25h-7.08l3.786-3.785a.187.187 0 01.259-.006l3.223 2.916v.688a.187.187 0 01-.188.187zM14 12.104V4.229c0-.725-.588-1.313-1.313-1.313H3.313C2.587 2.916 2 3.504 2 4.23v7.875c0 .725.588 1.312 1.313 1.312h9.374c.725 0 1.313-.587 1.313-1.312zM6.125 6.666a.375.375 0 11-.75 0 .375.375 0 01.75 0zm1.125 0a1.5 1.5 0 11-3 0 1.5 1.5 0 013 0z"/></svg>
